X: 6683
T: Celtic Thunder
R: reel
M: 4/4
K: Dmajor
|:FD (3DDD A,DFD|B,D (3DDD B,DGD|A,D (3DDD A,DFD|GGGF EDB,D|
FD (3DDD A,DFD|B,D (3DDD B,DGD|C2 CC DCB,A,|B,DAG FDB,D:|
|:F2(3FFF cFAF|G2 (3GGG dGBG|(3AAA cA eAcA|AB (3BBB gBdB|
c2 ce acec|cd (3ddd bdab|c'bag fgag|(3fgf (3efe d2 DE:|

